svgs/biliyou.svg

<svg xmlns="http://www.w3.org/2000/svg" width="192" height="192" fill="none"><path stroke="#000" stroke-linecap="round" stroke-linejoin="round" stroke-width="12" d="M49 90.5c5.833-3.333 19.8-10 29-10m65 10c-5.833-3.333-19.8-10-29-10M73 121c9.5 7.5 15.5 6.5 23-1 7.5 7.5 13.5 8.5 23 1M55 24l18 19m64-19-18 19m-57 0h68c22.091 0 40 17.909 40 40v43c0 22.091-17.909 40-40 40H62c-22.091 0-40-17.909-40-40V83c0-22.091 17.909-40 40-40"/></svg>

<svg width="192" height="192" viewBox="0 0 192 192" fill="none" xmlns="http://www.w3.org/2000/svg">
<path d="M49 90.5C54.8333 87.1667 68.8 80.5 78 80.5M143 90.5C137.167 87.1667 123.2 80.5 114 80.5M73 121C82.5 128.5 88.5 127.5 96 120C103.5 127.5 109.5 128.5 119 121M55 24L73 43M137 24L119 43M62 43H130C152.091 43 170 60.9086 170 83V126C170 148.091 152.091 166 130 166H62C39.9086 166 22 148.091 22 126V83C22 60.9086 39.9086 43 62 43Z" stroke="black" stroke-width="12" stroke-linecap="round" stroke-linejoin="round"/>
</svg>
